src/pos-icons/view-compact.svg

<svg height="24" viewBox="0 0 24 24" width="24" xmlns="http://www.w3.org/2000/svg"><path d="m3 19h6v-7h-6zm7 0h12v-7h-12zm-7-14v6h19v-6z"/></svg>

<?xml version="1.0" encoding="UTF-8"?><!DOCTYPE svg PUBLIC "-//W3C//DTD SVG 1.1//EN" "http://www.w3.org/Graphics/SVG/1.1/DTD/svg11.dtd"><svg xmlns="http://www.w3.org/2000/svg" xmlns:xlink="http://www.w3.org/1999/xlink" version="1.1" id="mdi-view-compact" width="24" height="24" viewBox="0 0 24 24"><path d="M3,19H9V12H3V19M10,19H22V12H10V19M3,5V11H22V5H3Z" /></svg>
